src/assets/icons/cactus.svg

<svg width="18" height="18" viewBox="0 0 18 18" fill="none" xmlns="http://www.w3.org/2000/svg">
<path d="M14.3041 4.26786C13.1757 4.26811 12.2619 5.182 12.2616 6.31037V8.5957H12.0785V2.94395C12.0782 1.31773 10.7608 0.000246094 9.13453 0C7.50831 0.000246094 6.19083 1.31773 6.19058 2.94395V9.52548C6.1819 9.52249 6.17318 9.52 6.16548 9.51775C6.12642 9.50706 6.09531 9.50059 6.06149 9.49363C5.9627 9.47373 5.84405 9.45359 5.73854 9.43291V8.34261C5.73833 7.21452 4.82441 6.30039 3.69603 6.30011C2.56794 6.30035 1.65405 7.21448 1.65381 8.34261V9.5439C1.65381 10.104 1.768 10.6449 1.97577 11.1353C2.28725 11.871 2.80356 12.4918 3.45395 12.9315C4.08817 13.3614 4.85851 13.6152 5.67435 13.6284L5.68577 13.6309H6.19062V18H12.0785V17.4904V12.6804H12.3107H12.3124L12.3383 12.6797V12.6792C12.8812 12.6754 13.4057 12.5637 13.8819 12.3624C14.6087 12.0549 15.2215 11.5453 15.6559 10.9027C16.0873 10.2652 16.3414 9.48916 16.3456 8.66682H16.3458L16.3463 8.65564V8.64791V8.64766V6.31034C16.3461 5.182 15.4322 4.26811 14.3041 4.26786ZM15.3272 8.64443V8.64795C15.3274 9.2662 15.1354 9.85394 14.8117 10.3316C14.4859 10.8134 14.0284 11.1935 13.4848 11.4239C13.1245 11.5762 12.7244 11.6613 12.3124 11.6613H12.3107H11.0594V16.9809H7.20976V12.6117H5.74923H5.74076H5.7383C5.10879 12.6117 4.51089 12.4169 4.0252 12.0875C3.53555 11.7563 3.14812 11.2906 2.91427 10.7382C2.75902 10.3717 2.67292 9.96511 2.67292 9.5439V8.34261C2.67316 8.05848 2.78661 7.80567 2.97273 7.6191C3.15934 7.43298 3.41187 7.31953 3.696 7.31928C3.98017 7.31953 4.23294 7.43298 4.41955 7.6191C4.60563 7.80571 4.71912 8.05848 4.71936 8.34261V9.54738C4.71764 9.74939 4.78679 9.95892 4.89008 10.11L4.89205 10.1127L4.89254 10.1136C4.95153 10.1985 5.00452 10.2368 5.0453 10.2657C5.12246 10.3167 5.17221 10.3336 5.21999 10.3518C5.26527 10.3677 5.30732 10.3796 5.34887 10.3903C5.38072 10.4266 5.4111 10.451 5.43423 10.4687C5.52057 10.5276 5.55742 10.5326 5.58575 10.5433C5.63553 10.5575 5.65121 10.558 5.66637 10.5608C5.68975 10.5635 5.69822 10.5638 5.7062 10.5645L5.74076 10.5653H7.20973V2.94395C7.20997 2.41073 7.42446 1.93279 7.77353 1.58295C8.12337 1.2336 8.60132 1.01939 9.13453 1.01914C9.66775 1.01939 10.1457 1.2336 10.4955 1.58295C10.8446 1.93275 11.0591 2.41073 11.0593 2.94395V9.61481H12.3106H12.3131C12.4089 9.61457 12.5077 9.6004 12.6 9.57129C12.6925 9.54267 12.7766 9.49985 12.8475 9.45288L12.8508 9.45088L12.8562 9.44715L12.8515 9.45039C13.0112 9.3414 13.1294 9.19786 13.2053 9.02095C13.2523 8.91222 13.2819 8.77539 13.2807 8.6445V6.31041C13.2809 6.02599 13.3944 5.77346 13.5805 5.58686C13.7671 5.40074 14.0197 5.28729 14.304 5.28704C14.5882 5.28729 14.8407 5.40074 15.0276 5.58661C15.2134 5.77347 15.3269 6.02599 15.3271 6.31041V8.64443H15.3272Z" fill="#222222"/>
</svg>

<svg width="18" height="18" fill="none" xmlns="http://www.w3.org/2000/svg"><path d="M14.304 4.268a2.042 2.042 0 00-2.042 2.042v2.286h-.184V2.944a2.944 2.944 0 10-5.887 0v6.581l-.026-.007-.104-.024c-.098-.02-.217-.04-.322-.061v-1.09a2.043 2.043 0 00-4.085 0v1.2a4.081 4.081 0 004.02 4.085l.012.003h.505V18h5.888V12.68h.259a4.04 4.04 0 004.007-4.012l.001-.012V6.31a2.042 2.042 0 00-2.042-2.042zm1.023 4.376v.004a3.01 3.01 0 01-1.842 2.776 3.02 3.02 0 01-1.173.237H11.06v5.32H7.21v-4.37H5.739a3.062 3.062 0 01-2.824-1.873 3.066 3.066 0 01-.241-1.194V8.343c0-.285.114-.537.3-.724.186-.186.439-.3.723-.3s.537.114.724.3c.186.187.3.44.3.724v1.204a1.02 1.02 0 00.17.563l.002.003a.563.563 0 00.153.153c.077.05.127.068.175.086.045.016.087.028.129.038.032.037.062.061.085.079.087.059.123.064.152.074.05.014.065.015.08.018l.04.004H7.21V2.944c0-.533.214-1.011.564-1.361.35-.35.827-.564 1.36-.564.534 0 1.012.215 1.361.564.35.35.564.828.564 1.361v6.67h1.254a.971.971 0 00.534-.161l.004-.002.005-.004-.005.003a.977.977 0 00.43-.805V6.31c0-.284.113-.537.3-.723a1.018 1.018 0 011.447 0c.185.186.299.439.3.723v2.334z" fill="#000000"/></svg>
